app/assets/img/about/subttl-01.svg

<svg fill="none" height="13" viewBox="0 0 80 13" width="80" xmlns="http://www.w3.org/2000/svg"><path d="m4.515.9525c.54 0 1.025.08 1.455.24.435.155.805.3725 1.11.6525s.5375.615.6975 1.005c.165.385.2475.81.2475 1.275 0 .4-.0575.77-.1725 1.11-.11.34-.2625.665-.4575.975-.195.305-.4225.6025-.6825.8925-.255.285-.5275.575-.8175.87l-2.1375 2.19c.275-.08.545-.1425.81-.1875.27-.05.5225-.075.7575-.075h2.04c.25 0 .4475.07.5925.21.145.135.2175.315.2175.54v1.35h-7.68v-.75c0-.145.03-.3.09-.465s.165-.315.315-.45l3.15-3.1725c.27-.27.505-.5275.705-.7725s.365-.485.495-.72c.13-.24.2275-.4775.2925-.7125.065-.24.0975-.4925.0975-.7575 0-.435-.105-.7675-.315-.9975-.205-.235-.52-.3525-.945-.3525-.175 0-.335.025-.48.075s-.275.1175-.39.2025-.215.185-.3.3c-.08.115-.145.24-.195.375-.08.225-.1825.3875-.3075.4875-.12.1-.285.15-.495.15-.05 0-.105-.0025-.165-.0075-.055-.005-.1125-.0125-.1725-.0225l-1.23-.2175c.08-.545.2325-1.02.4575-1.425.23-.405.5125-.7425.8475-1.0125.34-.27.7275-.47 1.1625-.6.435-.135.9025-.2025 1.4025-.2025zm12.4362 5.58c0 .955-.1025 1.7825-.3075 2.4825s-.49 1.28-.855 1.74c-.36.46-.79.8025-1.29 1.0275-.495.225-1.0325.3375-1.6125.3375s-1.1175-.1125-1.6125-.3375c-.49-.225-.915-.5675-1.27503-1.0275-.36-.46-.6425-1.04-.8475-1.74-.2-.7-.3-1.5275-.3-2.4825s.1-1.7825.3-2.4825c.205-.7.4875-1.28.8475-1.74.36003-.46.78503-.8 1.27503-1.02.495-.225 1.0325-.3375 1.6125-.3375s1.1175.1125 1.6125.3375c.5.22.93.56 1.29 1.02.365.46.65 1.04.855 1.74s.3075 1.5275.3075 2.4825zm-2.4 0c0-.755-.0475-1.3725-.1425-1.8525-.095-.485-.2225-.865-.3825-1.14-.155-.275-.3325-.4625-.5325-.5625-.2-.105-.4025-.1575-.6075-.1575s-.4075.0525-.6075.1575c-.195.1-.37.2875-.525.5625-.15.275-.2725.655-.3675 1.14-.09.48-.135 1.0975-.135 1.8525 0 .76.045 1.38.135 1.86.095.48.2175.86.3675 1.14.155.275.33.465.525.57.2.1.4025.15.6075.15s.4075-.05.6075-.15c.2-.105.3775-.295.5325-.57.16-.28.2875-.66.3825-1.14s.1425-1.1.1425-1.86zm4.4411 3.7875h2.1v-5.5125c0-.27.0075-.5525.0225-.8475l-1.2375 1.0275c-.08.065-.16.1125-.24.1425-.08.025-.1575.0375-.2325.0375-.13 0-.2475-.0275-.3525-.0825-.1-.06-.175-.1225-.225-.1875l-.735-.975 3.405-2.8575h1.92v9.255h1.8v1.68h-6.225zm8.5512 0h2.1v-5.5125c0-.27.0075-.5525.0225-.8475l-1.2375 1.0275c-.08.065-.16.1125-.24.1425-.08.025-.1575.0375-.2325.0375-.13 0-.2475-.0275-.3525-.0825-.1-.06-.175-.1225-.225-.1875l-.735-.975 3.405-2.8575h1.92v9.255h1.8v1.68h-6.225zm10.1616-3.8175h4.05v1.875h-4.05zm11.9171-5.55c.54 0 1.025.08 1.455.24.435.155.805.3725 1.11.6525s.5375.615.6975 1.005c.165.385.2475.81.2475 1.275 0 .4-.0575.77-.1725 1.11-.11.34-.2625.665-.4575.975-.195.305-.4225.6025-.6825.8925-.255.285-.5275.575-.8175.87l-2.1375 2.19c.275-.08.545-.1425.81-.1875.27-.05.5225-.075.7575-.075h2.04c.25 0 .4475.07.5925.21.145.135.2175.315.2175.54v1.35h-7.68v-.75c0-.145.03-.3.09-.465s.165-.315.315-.45l3.15-3.1725c.27-.27.505-.5275.705-.7725s.365-.485.495-.72c.13-.24.2275-.4775.2925-.7125.065-.24.0975-.4925.0975-.7575 0-.435-.105-.7675-.315-.9975-.205-.235-.52-.3525-.945-.3525-.175 0-.335.025-.48.075s-.275.1175-.39.2025-.215.185-.3.3c-.08.115-.145.24-.195.375-.08.225-.1825.3875-.3075.4875-.12.1-.285.15-.495.15-.05 0-.105-.0025-.165-.0075-.055-.005-.1125-.0125-.1725-.0225l-1.23-.2175c.08-.545.2325-1.02.4575-1.425.23-.405.5125-.7425.8475-1.0125.34-.27.7275-.47 1.1625-.6.435-.135.9025-.2025 1.4025-.2025zm12.4362 5.58c0 .955-.1025 1.7825-.3075 2.4825s-.49 1.28-.855 1.74c-.36.46-.79.8025-1.29 1.0275-.495.225-1.0325.3375-1.6125.3375s-1.1175-.1125-1.6125-.3375c-.49-.225-.915-.5675-1.275-1.0275s-.6425-1.04-.8475-1.74c-.2-.7-.3-1.5275-.3-2.4825s.1-1.7825.3-2.4825c.205-.7.4875-1.28.8475-1.74s.785-.8 1.275-1.02c.495-.225 1.0325-.3375 1.6125-.3375s1.1175.1125 1.6125.3375c.5.22.93.56 1.29 1.02.365.46.65 1.04.855 1.74s.3075 1.5275.3075 2.4825zm-2.4 0c0-.755-.0475-1.3725-.1425-1.8525-.095-.485-.2225-.865-.3825-1.14-.155-.275-.3325-.4625-.5325-.5625-.2-.105-.4025-.1575-.6075-.1575s-.4075.0525-.6075.1575c-.195.1-.37.2875-.525.5625-.15.275-.2725.655-.3675 1.14-.09.48-.135 1.0975-.135 1.8525 0 .76.045 1.38.135 1.86.095.48.2175.86.3675 1.14.155.275.33.465.525.57.2.1.4025.15.6075.15s.4075-.05.6075-.15c.2-.105.3775-.295.5325-.57.16-.28.2875-.66.3825-1.14s.1425-1.1.1425-1.86zm4.4412 3.7875h2.1v-5.5125c0-.27.0075-.5525.0225-.8475l-1.2375 1.0275c-.08.065-.16.1125-.24.1425-.08.025-.1575.0375-.2325.0375-.13 0-.2475-.0275-.3525-.0825-.1-.06-.175-.1225-.225-.1875l-.735-.975 3.405-2.8575h1.92v9.255h1.8v1.68h-6.225zm14.9561-9.2475v.975c0 .275-.03.4975-.09.6675s-.1175.315-.1725.435l-3.8175 8.085c-.1.215-.2475.3975-.4425.5475-.195.145-.4525.2175-.7725.2175h-1.695l3.9-7.8225c.105-.215.2175-.4075.3375-.5775.125-.17.26-.3325.405-.4875h-4.8075c-.07 0-.1375-.0125-.2025-.0375-.06-.03-.115-.0675-.165-.1125-.045-.05-.0825-.105-.1125-.165-.03-.065-.045-.13-.045-.195v-1.53z" fill="#121111"/></svg>

<svg width="80" height="13" viewBox="0 0 80 13" fill="none" xmlns="http://www.w3.org/2000/svg">
<path d="M4.515 0.9525C5.055 0.9525 5.54 1.0325 5.97 1.1925C6.405 1.3475 6.775 1.565 7.08 1.845C7.385 2.125 7.6175 2.46 7.7775 2.85C7.9425 3.235 8.025 3.66 8.025 4.125C8.025 4.525 7.9675 4.895 7.8525 5.235C7.7425 5.575 7.59 5.9 7.395 6.21C7.2 6.515 6.9725 6.8125 6.7125 7.1025C6.4575 7.3875 6.185 7.6775 5.895 7.9725L3.7575 10.1625C4.0325 10.0825 4.3025 10.02 4.5675 9.975C4.8375 9.925 5.09 9.9 5.325 9.9H7.365C7.615 9.9 7.8125 9.97 7.9575 10.11C8.1025 10.245 8.175 10.425 8.175 10.65V12H0.495V11.25C0.495 11.105 0.525 10.95 0.585 10.785C0.645 10.62 0.75 10.47 0.9 10.335L4.05 7.1625C4.32 6.8925 4.555 6.635 4.755 6.39C4.955 6.145 5.12 5.905 5.25 5.67C5.38 5.43 5.4775 5.1925 5.5425 4.9575C5.6075 4.7175 5.64 4.465 5.64 4.2C5.64 3.765 5.535 3.4325 5.325 3.2025C5.12 2.9675 4.805 2.85 4.38 2.85C4.205 2.85 4.045 2.875 3.9 2.925C3.755 2.975 3.625 3.0425 3.51 3.1275C3.395 3.2125 3.295 3.3125 3.21 3.4275C3.13 3.5425 3.065 3.6675 3.015 3.8025C2.935 4.0275 2.8325 4.19 2.7075 4.29C2.5875 4.39 2.4225 4.44 2.2125 4.44C2.1625 4.44 2.1075 4.4375 2.0475 4.4325C1.9925 4.4275 1.935 4.42 1.875 4.41L0.645 4.1925C0.725 3.6475 0.8775 3.1725 1.1025 2.7675C1.3325 2.3625 1.615 2.025 1.95 1.755C2.29 1.485 2.6775 1.285 3.1125 1.155C3.5475 1.02 4.015 0.9525 4.515 0.9525ZM16.9512 6.5325C16.9512 7.4875 16.8487 8.315 16.6437 9.015C16.4387 9.715 16.1537 10.295 15.7887 10.755C15.4287 11.215 14.9987 11.5575 14.4987 11.7825C14.0037 12.0075 13.4662 12.12 12.8862 12.12C12.3062 12.12 11.7687 12.0075 11.2737 11.7825C10.7837 11.5575 10.3587 11.215 9.99867 10.755C9.63867 10.295 9.35617 9.715 9.15117 9.015C8.95117 8.315 8.85117 7.4875 8.85117 6.5325C8.85117 5.5775 8.95117 4.75 9.15117 4.05C9.35617 3.35 9.63867 2.77 9.99867 2.31C10.3587 1.85 10.7837 1.51 11.2737 1.29C11.7687 1.065 12.3062 0.9525 12.8862 0.9525C13.4662 0.9525 14.0037 1.065 14.4987 1.29C14.9987 1.51 15.4287 1.85 15.7887 2.31C16.1537 2.77 16.4387 3.35 16.6437 4.05C16.8487 4.75 16.9512 5.5775 16.9512 6.5325ZM14.5512 6.5325C14.5512 5.7775 14.5037 5.16 14.4087 4.68C14.3137 4.195 14.1862 3.815 14.0262 3.54C13.8712 3.265 13.6937 3.0775 13.4937 2.9775C13.2937 2.8725 13.0912 2.82 12.8862 2.82C12.6812 2.82 12.4787 2.8725 12.2787 2.9775C12.0837 3.0775 11.9087 3.265 11.7537 3.54C11.6037 3.815 11.4812 4.195 11.3862 4.68C11.2962 5.16 11.2512 5.7775 11.2512 6.5325C11.2512 7.2925 11.2962 7.9125 11.3862 8.3925C11.4812 8.8725 11.6037 9.2525 11.7537 9.5325C11.9087 9.8075 12.0837 9.9975 12.2787 10.1025C12.4787 10.2025 12.6812 10.2525 12.8862 10.2525C13.0912 10.2525 13.2937 10.2025 13.4937 10.1025C13.6937 9.9975 13.8712 9.8075 14.0262 9.5325C14.1862 9.2525 14.3137 8.8725 14.4087 8.3925C14.5037 7.9125 14.5512 7.2925 14.5512 6.5325ZM18.9923 10.32H21.0923V4.8075C21.0923 4.5375 21.0998 4.255 21.1148 3.96L19.8773 4.9875C19.7973 5.0525 19.7173 5.1 19.6373 5.13C19.5573 5.155 19.4798 5.1675 19.4048 5.1675C19.2748 5.1675 19.1573 5.14 19.0523 5.085C18.9523 5.025 18.8773 4.9625 18.8273 4.8975L18.0923 3.9225L21.4973 1.065H23.4173V10.32H25.2173V12H18.9923V10.32ZM27.5435 10.32H29.6435V4.8075C29.6435 4.5375 29.651 4.255 29.666 3.96L28.4285 4.9875C28.3485 5.0525 28.2685 5.1 28.1885 5.13C28.1085 5.155 28.031 5.1675 27.956 5.1675C27.826 5.1675 27.7085 5.14 27.6035 5.085C27.5035 5.025 27.4285 4.9625 27.3785 4.8975L26.6435 3.9225L30.0485 1.065H31.9685V10.32H33.7685V12H27.5435V10.32ZM37.7051 6.5025H41.7551V8.3775H37.7051V6.5025ZM49.6222 0.9525C50.1622 0.9525 50.6472 1.0325 51.0772 1.1925C51.5122 1.3475 51.8822 1.565 52.1872 1.845C52.4922 2.125 52.7247 2.46 52.8847 2.85C53.0497 3.235 53.1322 3.66 53.1322 4.125C53.1322 4.525 53.0747 4.895 52.9597 5.235C52.8497 5.575 52.6972 5.9 52.5022 6.21C52.3072 6.515 52.0797 6.8125 51.8197 7.1025C51.5647 7.3875 51.2922 7.6775 51.0022 7.9725L48.8647 10.1625C49.1397 10.0825 49.4097 10.02 49.6747 9.975C49.9447 9.925 50.1972 9.9 50.4322 9.9H52.4722C52.7222 9.9 52.9197 9.97 53.0647 10.11C53.2097 10.245 53.2822 10.425 53.2822 10.65V12H45.6022V11.25C45.6022 11.105 45.6322 10.95 45.6922 10.785C45.7522 10.62 45.8572 10.47 46.0072 10.335L49.1572 7.1625C49.4272 6.8925 49.6622 6.635 49.8622 6.39C50.0622 6.145 50.2272 5.905 50.3572 5.67C50.4872 5.43 50.5847 5.1925 50.6497 4.9575C50.7147 4.7175 50.7472 4.465 50.7472 4.2C50.7472 3.765 50.6422 3.4325 50.4322 3.2025C50.2272 2.9675 49.9122 2.85 49.4872 2.85C49.3122 2.85 49.1522 2.875 49.0072 2.925C48.8622 2.975 48.7322 3.0425 48.6172 3.1275C48.5022 3.2125 48.4022 3.3125 48.3172 3.4275C48.2372 3.5425 48.1722 3.6675 48.1222 3.8025C48.0422 4.0275 47.9397 4.19 47.8147 4.29C47.6947 4.39 47.5297 4.44 47.3197 4.44C47.2697 4.44 47.2147 4.4375 47.1547 4.4325C47.0997 4.4275 47.0422 4.42 46.9822 4.41L45.7522 4.1925C45.8322 3.6475 45.9847 3.1725 46.2097 2.7675C46.4397 2.3625 46.7222 2.025 47.0572 1.755C47.3972 1.485 47.7847 1.285 48.2197 1.155C48.6547 1.02 49.1222 0.9525 49.6222 0.9525ZM62.0584 6.5325C62.0584 7.4875 61.9559 8.315 61.7509 9.015C61.5459 9.715 61.2609 10.295 60.8959 10.755C60.5359 11.215 60.1059 11.5575 59.6059 11.7825C59.1109 12.0075 58.5734 12.12 57.9934 12.12C57.4134 12.12 56.8759 12.0075 56.3809 11.7825C55.8909 11.5575 55.4659 11.215 55.1059 10.755C54.7459 10.295 54.4634 9.715 54.2584 9.015C54.0584 8.315 53.9584 7.4875 53.9584 6.5325C53.9584 5.5775 54.0584 4.75 54.2584 4.05C54.4634 3.35 54.7459 2.77 55.1059 2.31C55.4659 1.85 55.8909 1.51 56.3809 1.29C56.8759 1.065 57.4134 0.9525 57.9934 0.9525C58.5734 0.9525 59.1109 1.065 59.6059 1.29C60.1059 1.51 60.5359 1.85 60.8959 2.31C61.2609 2.77 61.5459 3.35 61.7509 4.05C61.9559 4.75 62.0584 5.5775 62.0584 6.5325ZM59.6584 6.5325C59.6584 5.7775 59.6109 5.16 59.5159 4.68C59.4209 4.195 59.2934 3.815 59.1334 3.54C58.9784 3.265 58.8009 3.0775 58.6009 2.9775C58.4009 2.8725 58.1984 2.82 57.9934 2.82C57.7884 2.82 57.5859 2.8725 57.3859 2.9775C57.1909 3.0775 57.0159 3.265 56.8609 3.54C56.7109 3.815 56.5884 4.195 56.4934 4.68C56.4034 5.16 56.3584 5.7775 56.3584 6.5325C56.3584 7.2925 56.4034 7.9125 56.4934 8.3925C56.5884 8.8725 56.7109 9.2525 56.8609 9.5325C57.0159 9.8075 57.1909 9.9975 57.3859 10.1025C57.5859 10.2025 57.7884 10.2525 57.9934 10.2525C58.1984 10.2525 58.4009 10.2025 58.6009 10.1025C58.8009 9.9975 58.9784 9.8075 59.1334 9.5325C59.2934 9.2525 59.4209 8.8725 59.5159 8.3925C59.6109 7.9125 59.6584 7.2925 59.6584 6.5325ZM64.0996 10.32H66.1996V4.8075C66.1996 4.5375 66.2071 4.255 66.2221 3.96L64.9846 4.9875C64.9046 5.0525 64.8246 5.1 64.7446 5.13C64.6646 5.155 64.5871 5.1675 64.5121 5.1675C64.3821 5.1675 64.2646 5.14 64.1596 5.085C64.0596 5.025 63.9846 4.9625 63.9346 4.8975L63.1996 3.9225L66.6046 1.065H68.5246V10.32H70.3246V12H64.0996V10.32ZM79.0557 1.0725V2.0475C79.0557 2.3225 79.0257 2.545 78.9657 2.715C78.9057 2.885 78.8482 3.03 78.7932 3.15L74.9757 11.235C74.8757 11.45 74.7282 11.6325 74.5332 11.7825C74.3382 11.9275 74.0807 12 73.7607 12H72.0657L75.9657 4.1775C76.0707 3.9625 76.1832 3.77 76.3032 3.6C76.4282 3.43 76.5632 3.2675 76.7082 3.1125H71.9007C71.8307 3.1125 71.7632 3.1 71.6982 3.075C71.6382 3.045 71.5832 3.0075 71.5332 2.9625C71.4882 2.9125 71.4507 2.8575 71.4207 2.7975C71.3907 2.7325 71.3757 2.6675 71.3757 2.6025V1.0725H79.0557Z" fill="#121111"/>
</svg>
